public/rideau-data/social-networks/twitter.svg

<?xml version="1.0" encoding="UTF-8" standalone="no"?>
<svg
   xmlns:dc="http://purl.org/dc/elements/1.1/"
   xmlns:cc="http://creativecommons.org/ns#"
   xmlns:rdf="http://www.w3.org/1999/02/22-rdf-syntax-ns#"
   xmlns:svg="http://www.w3.org/2000/svg"
   xmlns="http://www.w3.org/2000/svg"
   xmlns:sodipodi="http://sodipodi.sourceforge.net/DTD/sodipodi-0.dtd"
   xmlns:inkscape="http://www.inkscape.org/namespaces/inkscape"
   width="1792"
   height="1792"
   viewBox="0 0 1792 1792"
   id="svg4182"
   version="1.1"
   inkscape:version="0.91 r13725"
   sodipodi:docname="twitter.svg">
  <metadata
     id="metadata4190">
    <rdf:RDF>
      <cc:Work
         rdf:about="">
        <dc:format>image/svg+xml</dc:format>
        <dc:type
           rdf:resource="http://purl.org/dc/dcmitype/StillImage" />
      </cc:Work>
    </rdf:RDF>
  </metadata>
  <defs
     id="defs4188" />
  <sodipodi:namedview
     pagecolor="#ffffff"
     bordercolor="#666666"
     borderopacity="1"
     objecttolerance="10"
     gridtolerance="10"
     guidetolerance="10"
     inkscape:pageopacity="0"
     inkscape:pageshadow="2"
     inkscape:window-width="1280"
     inkscape:window-height="778"
     id="namedview4186"
     showgrid="false"
     inkscape:zoom="0.22633191"
     inkscape:cx="676.41515"
     inkscape:cy="935.98244"
     inkscape:window-x="-8"
     inkscape:window-y="102"
     inkscape:window-maximized="1"
     inkscape:current-layer="svg4182" />
  <path
     style="opacity:1;fill:#000000;fill-opacity:1;fill-rule:nonzero;stroke:none;stroke-width:1;stroke-linecap:round;stroke-miterlimit:4;stroke-dasharray:none;stroke-opacity:1"
     d="M 870.40234 99.794922 A 777.61902 777.61902 0 0 0 92.783203 877.41406 A 777.61902 777.61902 0 0 0 870.40234 1655.0332 A 777.61902 777.61902 0 0 0 1648.0215 877.41406 A 777.61902 777.61902 0 0 0 870.40234 99.794922 z M 1094.0801 494.91602 C 1150.0749 494.91602 1197.2714 515.31506 1235.668 556.11133 C 1279.264 547.71213 1320.2596 532.11434 1358.6562 509.31641 C 1343.8575 555.31221 1315.461 590.90774 1273.4648 616.10547 C 1310.6614 612.1058 1347.8581 602.10791 1385.0547 586.10938 C 1358.2572 625.30584 1325.8599 658.70136 1287.8633 686.29883 C 1288.2633 691.89836 1288.4629 700.29911 1288.4629 711.49805 C 1288.4629 763.49338 1280.8627 815.38833 1265.6641 867.18359 C 1250.4654 918.97886 1227.3682 968.67382 1196.3711 1016.2695 C 1165.3739 1063.8653 1128.4778 1105.9619 1085.6816 1142.5586 C 1042.8855 1179.1553 991.28903 1208.3524 930.89453 1230.1504 C 870.49998 1251.9485 805.90701 1262.8477 737.11328 1262.8477 C 628.72308 1262.8477 529.5308 1233.8503 439.53906 1175.8555 C 453.53773 1177.4553 469.13754 1178.2539 486.33594 1178.2539 C 576.3278 1178.2539 656.52046 1150.6579 726.91406 1095.4629 C 684.91793 1094.663 647.32005 1081.7634 614.12305 1056.7656 C 580.92605 1031.7679 558.12934 999.87073 545.73047 961.07422 C 558.92927 963.07402 571.12724 964.07422 582.32617 964.07422 C 599.52471 964.07422 616.52387 961.87421 633.32227 957.47461 C 588.52633 948.27541 551.42858 925.97681 522.03125 890.58008 C 492.63392 855.18328 477.93555 814.0887 477.93555 767.29297 L 477.93555 764.89258 C 505.13308 780.09118 534.33014 788.2903 565.52734 789.49023 C 539.12974 771.89177 518.1318 748.89349 502.5332 720.49609 C 486.9346 692.09869 479.13672 661.30247 479.13672 628.10547 C 479.13672 592.90867 487.9348 560.31172 505.5332 530.31445 C 553.92887 589.90905 612.82313 637.60366 682.2168 673.40039 C 751.61046 709.19712 825.90477 729.09604 905.09766 733.0957 C 901.89786 717.89704 900.29688 703.09789 900.29688 688.69922 C 900.29688 635.10409 919.19559 589.40786 956.99219 551.61133 C 994.78875 513.81473 1040.4849 494.91602 1094.0801 494.91602 z "
     id="path3335" />
</svg>

<?xml version="1.0" encoding="UTF-8" standalone="no"?>
<svg
   xmlns:dc="http://purl.org/dc/elements/1.1/"
   xmlns:cc="http://creativecommons.org/ns#"
   xmlns:rdf="http://www.w3.org/1999/02/22-rdf-syntax-ns#"
   xmlns:svg="http://www.w3.org/2000/svg"
   xmlns="http://www.w3.org/2000/svg"
   xmlns:sodipodi="http://sodipodi.sourceforge.net/DTD/sodipodi-0.dtd"
   xmlns:inkscape="http://www.inkscape.org/namespaces/inkscape"
   width="1792"
   height="1792"
   viewBox="0 0 1792 1792"
   id="svg4182"
   version="1.1"
   inkscape:version="0.91 r13725"
   sodipodi:docname="twitter.svg">
  <metadata
     id="metadata4190">
    <rdf:RDF>
      <cc:Work
         rdf:about="">
        <dc:format>image/svg+xml</dc:format>
        <dc:type
           rdf:resource="http://purl.org/dc/dcmitype/StillImage" />
      </cc:Work>
    </rdf:RDF>
  </metadata>
  <defs
     id="defs4188" />
  <sodipodi:namedview
     pagecolor="#ffffff"
     bordercolor="#666666"
     borderopacity="1"
     objecttolerance="10"
     gridtolerance="10"
     guidetolerance="10"
     inkscape:pageopacity="0"
     inkscape:pageshadow="2"
     inkscape:window-width="764"
     inkscape:window-height="613"
     id="namedview4186"
     showgrid="false"
     inkscape:zoom="0.22633191"
     inkscape:cx="1336.9495"
     inkscape:cy="971.08531"
     inkscape:window-x="490"
     inkscape:window-y="271"
     inkscape:window-maximized="0"
     inkscape:current-layer="svg4182" />
  <path
     d="M896 622l201 306h-402zm365 530h94l-459-691-459 691h94l104-160h522zm403-256q0 209-103 385.5t-279.5 279.5-385.5 103-385.5-103-279.5-279.5-103-385.5 103-385.5 279.5-279.5 385.5-103 385.5 103 279.5 279.5 103 385.5z"
     id="path4184" />
  <circle
     style="opacity:1;fill:#000000;fill-opacity:1;fill-rule:nonzero;stroke:none;stroke-width:1;stroke-linecap:round;stroke-miterlimit:4;stroke-dasharray:none;stroke-opacity:1"
     id="path4158"
     cx="895.99994"
     cy="903.5932"
     r="571.42859" />
  <path
     id="path4149"
     d="m 1385.0538,586.10854 q -40.1963,58.7947 -97.1912,100.1909 0.6,8.3993 0.6,25.1977 0,77.993 -22.7979,155.6859 -22.798,77.6929 -69.2937,149.08646 -46.4958,71.3936 -110.69,126.2886 -64.1942,54.895 -154.78595,87.592 -90.59183,32.6971 -193.78243,32.6971 -162.5853,0 -297.5729,-86.9922 20.998,2.3998 46.7956,2.3998 134.9878,0 240.5782,-82.7925 -62.9942,-1.1998 -112.7897,-38.6964 -49.7955,-37.4966 -68.3938,-95.69136 19.7982,2.9997 36.5966,2.9997 25.7978,0 50.9954,-6.5994 -67.1939,-13.7988 -111.2899,-66.8939 -44.096,-53.0952 -44.096,-123.2888 l 0,-2.3998 q 40.7963,22.7979 87.5921,24.5978 -39.5964,-26.3977 -62.9943,-68.9938 -23.3979,-42.5961 -23.3979,-92.3916 0,-52.7952 26.3976,-97.7911 72.5935,89.3919 176.684,143.087 104.0905,53.6951 222.87983,59.6946 -4.7997,-22.798 -4.7997,-44.396 0,-80.3927 56.6949,-137.0875 56.69485,-56.6949 137.08765,-56.6949 83.9923,0 141.5871,61.1944 65.394,-12.5988 122.9889,-46.7957 -22.1981,68.9937 -85.1923,106.7903 55.7949,-5.9995 111.5898,-29.9973 z"
     inkscape:connector-curvature="0"
     style="fill:#ffffff;fill-opacity:1" />
</svg>
